usr/share/icons/biglinux-icons-material-dark/symbolic/status/fcitx-ziranma.svg

<?xml version="1.0" encoding="UTF-8"?>
<svg xmlns="http://www.w3.org/2000/svg" xmlns:xlink="http://www.w3.org/1999/xlink" xmlns:cc="http://creativecommons.org/ns#" xmlns:dc="http://purl.org/dc/elements/1.1/" xmlns:rdf="http://www.w3.org/1999/02/22-rdf-syntax-ns#" xmlns:inkscape="http://www.inkscape.org/namespaces/inkscape" xmlns:sodipodi="http://sodipodi.sourceforge.net/DTD/sodipodi-0.dtd" width="22" height="22">
    <style type="text/css" id="current-color-scheme">
      .ColorScheme-Text {
        color:#31363b;
      }
      .ColorScheme-Background {
        color:#eff0f1;
      }
      .ColorScheme-Highlight {
        color:#3daee9;
      }
      .ColorScheme-ViewText {
        color:#31363b;
      }
      .ColorScheme-ViewBackground {
        color:#fcfcfc;
      }
      .ColorScheme-ViewHover {
        color:#93cee9;
      }
      .ColorScheme-ViewFocus{
        color:#3daee9;
      }
      .ColorScheme-ButtonText {
        color:#31363b;
      }
      .ColorScheme-ButtonBackground {
        color:#eff0f1;
      }
      .ColorScheme-ButtonHover {
        color:#93cee9;
      }
      .ColorScheme-ButtonFocus{
        color:#3daee9;
      }
      </style>
    <g id="fcitx-ziranma" transform="translate(198,8e-6) translate(-198,-8e-06)">
    <path class="ColorScheme-Text" style="fill:currentColor;fill-opacity:1;stroke:none" d="M 3,3 3,19 19,19 19,3 3,3 Z M 4,4 18,4 18,18 4,18 4,4 Z M 9.6796875,4.6152344 6.8183594,7 6,7 6,17 7,17 15.5,17 16,17 16,7 8.3828125,7 10.320312,5.3847656 9.6796875,4.6152344 Z M 7,8 l 8,0 0,8 -8,0 0,-2 6,0 0,-1 -6,0 0,-2 6,0 0,-1 -6,0 0,-2 z" id="path4227"/>
    <rect style="fill:none;fill-opacity:1;stroke:none;stroke-linejoin:miter" id="rect4229" width="22" height="22" x="0" y="0"/>
  </g>
</svg>

<svg xmlns="http://www.w3.org/2000/svg" width="22" height="22">
<style id="current-color-scheme" type="text/css">
.ColorScheme-Contrast{color:#31363b}
</style>
<g id="fcitx-ziranma">
<path id="path4227" d="M3 3v16h16V3zm1 1h14v14H4zm5.68.615L6.818 7H6v10h10V7H8.383l1.937-1.615zM7 8h8v8H7v-2h6v-1H7v-2h6v-1H7z" class="ColorScheme-Contrast" style="fill:currentColor;fill-opacity:1;stroke:none"/>
<path id="rect4229" d="M0 0h22v22H0z" style="fill:none;fill-opacity:1;stroke:none;stroke-linejoin:miter"/>
</g>
</svg>
